Newaita-dark/actions/32/view-calendar-timeline.svg

<?xml version="1.0" encoding="UTF-8"?>
<svg xmlns="http://www.w3.org/2000/svg" xmlns:xlink="http://www.w3.org/1999/xlink" width="32pt" height="32pt" viewBox="0 0 32 32" version="1.1">
<defs>
<filter id="alpha" filterUnits="objectBoundingBox" x="0%" y="0%" width="100%" height="100%">
  <feColorMatrix type="matrix" in="SourceGraphic" values="0 0 0 0 1 0 0 0 0 1 0 0 0 0 1 0 0 0 1 0"/>
</filter>
<mask id="mask0">
  <g filter="url(#alpha)">
<rect x="0" y="0" width="32" height="32" style="fill:rgb(0%,0%,0%);fill-opacity:0.988235;stroke:none;"/>
  </g>
</mask>
<clipPath id="clip1">
  <rect x="0" y="0" width="32" height="32"/>
</clipPath>
<g id="surface5" clip-path="url(#clip1)">
<path style=" stroke:none;fill-rule:nonzero;fill:rgb(74.117649%,74.117649%,74.117649%);fill-opacity:1;" d="M 1.324219 8.1875 L 1.324219 28.035156 C 1.324219 29.5 2.503906 30.679688 3.96875 30.679688 L 27.785156 30.679688 C 29.25 30.679688 30.429688 29.5 30.429688 28.035156 L 30.429688 8.1875 L 28.445312 8.1875 L 28.445312 27.371094 C 28.445312 28.105469 27.855469 28.695312 27.121094 28.695312 L 4.628906 28.695312 C 3.898438 28.695312 3.308594 28.105469 3.308594 27.371094 L 3.308594 8.1875 Z M 1.324219 8.1875 "/>
</g>
<mask id="mask1">
  <g filter="url(#alpha)">
<rect x="0" y="0" width="32" height="32" style="fill:rgb(0%,0%,0%);fill-opacity:0.988235;stroke:none;"/>
  </g>
</mask>
<clipPath id="clip2">
  <rect x="0" y="0" width="32" height="32"/>
</clipPath>
<g id="surface8" clip-path="url(#clip2)">
<path style=" stroke:none;fill-rule:nonzero;fill:rgb(61.176473%,80.000001%,39.607844%);fill-opacity:1;" d="M 3.96875 1.574219 C 2.503906 1.574219 1.324219 2.753906 1.324219 4.21875 L 1.324219 8.1875 L 30.429688 8.1875 L 30.429688 4.21875 C 30.429688 2.753906 29.25 1.574219 27.785156 1.574219 Z M 5.953125 2.894531 C 7.054688 2.894531 7.9375 3.78125 7.9375 4.878906 C 7.9375 5.980469 7.054688 6.863281 5.953125 6.863281 C 4.855469 6.863281 3.96875 5.980469 3.96875 4.878906 C 3.96875 3.78125 4.855469 2.894531 5.953125 2.894531 Z M 25.800781 2.894531 C 26.898438 2.894531 27.785156 3.78125 27.785156 4.878906 C 27.785156 5.980469 26.898438 6.863281 25.800781 6.863281 C 24.699219 6.863281 23.816406 5.980469 23.816406 4.878906 C 23.816406 3.78125 24.699219 2.894531 25.800781 2.894531 Z M 25.800781 2.894531 "/>
</g>
</defs>
<g id="surface1">
<use xlink:href="#surface5" mask="url(#mask0)"/>
<use xlink:href="#surface8" mask="url(#mask1)"/>
<path style=" stroke:none;fill-rule:nonzero;fill:rgb(100%,43.921569%,26.274511%);fill-opacity:1;" d="M 7.9375 12.820312 L 19.84375 12.820312 C 20.941406 12.820312 21.832031 13.558594 21.832031 14.472656 C 21.832031 15.386719 20.941406 16.125 19.84375 16.125 L 7.9375 16.125 C 6.84375 16.125 5.953125 15.386719 5.953125 14.472656 C 5.953125 13.558594 6.84375 12.820312 7.9375 12.820312 Z M 7.9375 12.820312 "/>
<path style=" stroke:none;fill-rule:nonzero;fill:rgb(100%,43.921569%,26.274511%);fill-opacity:1;" d="M 11.246094 20.09375 L 23.152344 20.09375 C 24.25 20.09375 25.136719 20.835938 25.136719 21.75 C 25.136719 22.664062 24.25 23.402344 23.152344 23.402344 L 11.246094 23.402344 C 10.148438 23.402344 9.261719 22.664062 9.261719 21.75 C 9.261719 20.835938 10.148438 20.09375 11.246094 20.09375 Z M 11.246094 20.09375 "/>
</g>
</svg>

<svg xmlns="http://www.w3.org/2000/svg" xmlns:xlink="http://www.w3.org/1999/xlink" width="32pt" height="32pt" viewBox="0 0 32 32"><defs><filter id="a" filterUnits="objectBoundingBox" x="0%" y="0%" width="100%" height="100%"><feColorMatrix in="SourceGraphic" values="0 0 0 0 1 0 0 0 0 1 0 0 0 0 1 0 0 0 1 0"/></filter><mask id="e"><path fill-opacity=".988" d="M0 0h32v32H0z" filter="url(#a)"/></mask><clipPath id="b"><path d="M0 0h32v32H0z"/></clipPath><g id="d" clip-path="url(#b)"><path d="M1.324 8.188v19.847A2.639 2.639 0 0 0 3.97 30.68h23.816a2.639 2.639 0 0 0 2.645-2.645V8.187h-1.985v19.184a1.32 1.32 0 0 1-1.324 1.324H4.63c-.73 0-1.32-.59-1.32-1.324V8.188zm0 0" fill="#bdbdbd"/></g><mask id="g"><path fill-opacity=".988" d="M0 0h32v32H0z" filter="url(#a)"/></mask><clipPath id="c"><path d="M0 0h32v32H0z"/></clipPath><g id="f" clip-path="url(#c)"><path d="M3.969 1.574A2.639 2.639 0 0 0 1.324 4.22v3.968H30.43V4.22a2.639 2.639 0 0 0-2.645-2.645zm1.984 1.32A1.98 1.98 0 0 1 7.937 4.88a1.977 1.977 0 0 1-1.984 1.984A1.98 1.98 0 0 1 3.97 4.88c0-1.098.886-1.984 1.984-1.984zm19.848 0c1.097 0 1.984.887 1.984 1.985a1.98 1.98 0 0 1-1.984 1.984 1.977 1.977 0 0 1-1.985-1.984 1.98 1.98 0 0 1 1.985-1.984zm0 0" fill="#9ccc65"/></g></defs><use xlink:href="#d" mask="url(#e)"/><use xlink:href="#f" mask="url(#g)"/><path d="M7.938 12.82h11.906c1.097 0 1.988.739 1.988 1.653s-.89 1.652-1.988 1.652H7.937c-1.093 0-1.984-.738-1.984-1.652 0-.914.89-1.653 1.984-1.653zm0 0M11.246 20.094h11.906c1.098 0 1.985.742 1.985 1.656 0 .914-.887 1.652-1.985 1.652H11.246c-1.098 0-1.984-.738-1.984-1.652 0-.914.886-1.656 1.984-1.656zm0 0" fill="#ff7043"/></svg>
